X: 37455
T: Sliabh Na mBan
R: waltz
M: 3/4
K: Gmajor
D3EF2|G4-GA/B/|c4A2|B4 A3G/F/|G3 Bd2|g4 {agfgab}a2-ag/f/e/|f d4-d>B|c6 B>c|
d3 e d2 c/A/B|1 G4Bd|c2 B2 AG|A4B/A/G/F:|2 G4 cA3 B/A/G/F|G4 A/G/F|G6 B>c||
d3 ef2|g4 B2|c4 d>e|f3e de/d/|cA B4-|B4 AF|G3 A Bd|g4 B2|c4 d>e|f4 e2d<^c|d8|
D3 EF2|G4-GA/B/|c4A2|B4 AG/F/|G4 Bd|g4 {agfgab}a2-ag/f/e/|f d4-d>B|c6 Bc|
d3 e d3c/A/|AB G4|cA4 B/A/G/F|G6A/G/F|G6 A/G/F||

